Newaita-dark/apps/48/kjumpingcube.svg

<svg height="48pt" viewBox="0 0 48 48" width="48pt" xmlns="http://www.w3.org/2000/svg" xmlns:xlink="http://www.w3.org/1999/xlink"><linearGradient id="a"><stop offset="0" stop-opacity=".313725"/><stop offset=".222222" stop-opacity=".27451"/><stop offset="1" stop-opacity="0"/></linearGradient><radialGradient id="b" cx="450.908936" cy="189.579361" gradientTransform="matrix(.00000026 -.117199 -.210958 -.00000015 63.311737 95.392999)" gradientUnits="userSpaceOnUse" r="21.166656" xlink:href="#a"/><radialGradient id="c" cx="450.908936" cy="189.579361" gradientTransform="matrix(-.00000026 .117199 .210958 .00000015 -15.682186 -11.291218)" gradientUnits="userSpaceOnUse" r="21.166656" xlink:href="#a"/><radialGradient id="d" cx="450.908936" cy="189.579361" gradientTransform="matrix(-.00000026 -.117199 .210958 -.00000015 -15.682186 95.392999)" gradientUnits="userSpaceOnUse" r="21.166656" xlink:href="#a"/><radialGradient id="e" cx="450.908936" cy="189.579361" gradientTransform="matrix(.00000026 .117199 -.210958 .00000015 63.311734 -11.291219)" gradientUnits="userSpaceOnUse" r="21.166656" xlink:href="#a"/><linearGradient id="f" gradientTransform="matrix(.0662976 -.0662976 .0662976 .0662976 5.52769 38.519098)" gradientUnits="userSpaceOnUse" x1="111.280739" x2="395.655518" y1="164.552521" y2="-119.822243"><stop offset="0" stop-color="#ef5350"/><stop offset="1" stop-color="#e57373"/></linearGradient><linearGradient id="g"><stop offset="0" stop-color="#e0e0e0"/><stop offset="1" stop-color="#eee"/></linearGradient><linearGradient id="h" gradientUnits="userSpaceOnUse" x1="179.13372" x2="134.232445" xlink:href="#g" y1="180.076523" y2="224.977806"/><linearGradient id="i" gradientUnits="userSpaceOnUse" x1="96.814712" x2="51.913422" xlink:href="#g" y1="97.757513" y2="142.658795"/><linearGradient id="j" gradientUnits="userSpaceOnUse" x1="261.452731" x2="216.551455" xlink:href="#g" y1="90.273966" y2="135.175247"/><linearGradient id="k" gradientUnits="userSpaceOnUse" x1="261.452731" x2="216.551455" xlink:href="#g" y1="262.395542" y2="307.296822"/><linearGradient id="l" gradientUnits="userSpaceOnUse" x1="96.814682" x2="48.171631" xlink:href="#g" y1="262.39554" y2="311.038586"/><path d="m23.816406 42.050781h3.96875v-1.984375h-3.96875zm0 0" fill="url(#b)"/><path d="m23.816406 42.050781h-3.972656v1.984375h3.972656zm0 0" fill="url(#c)"/><path d="m23.816406 42.050781h-3.972656v-1.984375h3.972656zm0 0" fill="url(#d)"/><path d="m23.816406 42.050781h3.96875v1.984375h-3.96875zm0 0" fill="url(#e)"/><path d="m5.570312 21.722656 16.839844-16.839844c.777344-.773437 2.03125-.773437 2.808594 0l16.839844 16.839844c.773437.777344.773437 2.03125 0 2.808594l-16.839844 16.839844c-.777344.773437-2.03125.773437-2.808594 0l-16.839844-16.839844c-.773437-.777344-.773437-2.03125 0-2.808594zm0 0" fill="url(#f)"/><g stroke="#212121" stroke-linecap="round" stroke-width="3"><path d="m157.212913 170.264106c17.528681-.02946 31.757846 14.199705 31.728386 31.728387.02946 17.528681-14.199705 31.757847-31.728386 31.728387-17.528682.02946-31.757847-14.199706-31.728387-31.728387-.02946-17.528682 14.199705-31.757847 31.728387-31.728387zm0 0" fill="url(#h)" transform="matrix(.0662976 -.0662976 .0662976 .0662976 0 20.158175)"/><path d="m72.544961 85.596154c17.528682-.02946 31.757847 14.199705 31.728387 31.728387.02946 17.528682-14.199705 31.757847-31.728387 31.728387-17.528682.02946-31.757847-14.199705-31.728387-31.728387-.02946-17.528682 14.199705-31.757847 31.728387-31.728387zm0 0" fill="url(#i)" transform="matrix(.0662976 -.0662976 .0662976 .0662976 0 20.158175)"/><path d="m241.880864 85.596154c17.528682-.02946 31.757847 14.199705 31.728387 31.728387.02946 17.528682-14.199705 31.757847-31.728387 31.728387-17.528682.02946-31.757847-14.199705-31.728387-31.728387-.02946-17.528682 14.199705-31.757847 31.728387-31.728387zm0 0" fill="url(#j)" transform="matrix(.0662976 -.0662976 .0662976 .0662976 0 20.158175)"/><path d="m241.880864 254.932057c17.528682-.02946 31.757847 14.199706 31.728387 31.728387.02946 17.528682-14.199705 31.757847-31.728387 31.728387-17.528682.02946-31.757847-14.199705-31.728387-31.728387-.02946-17.528681 14.199705-31.757847 31.728387-31.728387zm0 0" fill="url(#k)" transform="matrix(.0662976 -.0662976 .0662976 .0662976 0 20.158175)"/><path d="m72.544961 254.932057c17.528682-.02946 31.757847 14.199706 31.728387 31.728387.02946 17.528682-14.199705 31.757847-31.728387 31.728387-17.528682.02946-31.757847-14.199705-31.728387-31.728387-.02946-17.528681 14.199705-31.757847 31.728387-31.728387zm0 0" fill="url(#l)" transform="matrix(.0662976 -.0662976 .0662976 .0662976 0 20.158175)"/></g><path d="m23.816406 4.300781c-.507812 0-1.015625.195313-1.40625.582031l-16.839844 16.839844c-.464843.46875-.652343 1.109375-.558593 1.710938.0625-.398438.25-.785156.558593-1.09375l16.839844-16.839844c.777344-.777344 2.03125-.777344 2.808594 0l16.839844 16.839844c.308594.308594.496094.695312.558594 1.09375.09375-.601563-.09375-1.242188-.558594-1.710938l-16.839844-16.839844c-.390625-.386718-.898438-.582031-1.402344-.582031zm0 0" fill="#fff" fill-opacity=".392157"/><path d="m23.816406 41.953125c-.507812 0-1.015625-.195313-1.40625-.585937l-16.839844-16.839844c-.464843-.464844-.652343-1.105469-.558593-1.710938.0625.402344.25.789063.558593 1.097656l16.839844 16.839844c.777344.777344 2.03125.777344 2.808594 0l16.839844-16.839844c.308594-.308593.496094-.695312.558594-1.097656.09375.605469-.09375 1.246094-.558594 1.710938l-16.839844 16.839844c-.390625.390624-.898438.585937-1.402344.585937zm0 0" fill-opacity=".235294"/><path d="m5.472656 21.625c-.832031.828125-.832031 2.175781 0 3.003906l16.839844 16.839844c.832031.832031 2.175781.832031 3.003906 0l16.839844-16.839844c.832031-.828125.832031-2.171875 0-3.003906l-16.839844-16.839844c-.828125-.832031-2.171875-.832031-3.003906 0zm.199219.199219 16.839844-16.839844c.722656-.726563 1.882812-.726563 2.605469 0l16.839843 16.839844c.726563.722656.726563 1.882812 0 2.605469l-16.839843 16.839843c-.722657.726563-1.882813.726563-2.605469 0l-16.839844-16.839843c-.722656-.722657-.726563-1.882813 0-2.605469zm0 0" fill="#212121"/></svg>

<?xml version="1.0" encoding="UTF-8"?>
<svg xmlns="http://www.w3.org/2000/svg" xmlns:xlink="http://www.w3.org/1999/xlink" width="48pt" height="48pt" viewBox="0 0 48 48" version="1.1">
<defs>
<radialGradient id="radial0" gradientUnits="userSpaceOnUse" cx="450.908936" cy="189.579361" fx="450.908936" fy="189.579361" r="21.166656" gradientTransform="matrix(0.000000261256,-0.117199,-0.210958,-0.000000152308,63.311737,95.392999)">
<stop offset="0" style="stop-color:rgb(0%,0%,0%);stop-opacity:0.313725;"/>
<stop offset="0.222222" style="stop-color:rgb(0%,0%,0%);stop-opacity:0.27451;"/>
<stop offset="1" style="stop-color:rgb(0%,0%,0%);stop-opacity:0;"/>
</radialGradient>
<radialGradient id="radial1" gradientUnits="userSpaceOnUse" cx="450.908936" cy="189.579361" fx="450.908936" fy="189.579361" r="21.166656" gradientTransform="matrix(-0.000000261256,0.117199,0.210958,0.000000152308,-15.682186,-11.291218)">
<stop offset="0" style="stop-color:rgb(0%,0%,0%);stop-opacity:0.313725;"/>
<stop offset="0.222222" style="stop-color:rgb(0%,0%,0%);stop-opacity:0.27451;"/>
<stop offset="1" style="stop-color:rgb(0%,0%,0%);stop-opacity:0;"/>
</radialGradient>
<radialGradient id="radial2" gradientUnits="userSpaceOnUse" cx="450.908936" cy="189.579361" fx="450.908936" fy="189.579361" r="21.166656" gradientTransform="matrix(-0.000000261256,-0.117199,0.210958,-0.000000152308,-15.682186,95.392999)">
<stop offset="0" style="stop-color:rgb(0%,0%,0%);stop-opacity:0.313725;"/>
<stop offset="0.222222" style="stop-color:rgb(0%,0%,0%);stop-opacity:0.27451;"/>
<stop offset="1" style="stop-color:rgb(0%,0%,0%);stop-opacity:0;"/>
</radialGradient>
<radialGradient id="radial3" gradientUnits="userSpaceOnUse" cx="450.908936" cy="189.579361" fx="450.908936" fy="189.579361" r="21.166656" gradientTransform="matrix(0.000000261256,0.117199,-0.210958,0.000000152308,63.311734,-11.291219)">
<stop offset="0" style="stop-color:rgb(0%,0%,0%);stop-opacity:0.313725;"/>
<stop offset="0.222222" style="stop-color:rgb(0%,0%,0%);stop-opacity:0.27451;"/>
<stop offset="1" style="stop-color:rgb(0%,0%,0%);stop-opacity:0;"/>
</radialGradient>
<linearGradient id="linear0" gradientUnits="userSpaceOnUse" x1="111.280739" y1="164.552521" x2="395.655518" y2="-119.822243" gradientTransform="matrix(0.0662976,-0.0662976,0.0662976,0.0662976,5.52769,38.519098)">
<stop offset="0" style="stop-color:rgb(93.72549%,32.54902%,31.372549%);stop-opacity:1;"/>
<stop offset="1" style="stop-color:rgb(89.803922%,45.098039%,45.098039%);stop-opacity:1;"/>
</linearGradient>
<linearGradient id="linear1" gradientUnits="userSpaceOnUse" x1="275.918762" y1="15.789505" x2="231.017487" y2="60.690788" gradientTransform="matrix(1,0,0,1,-96.785042,164.287018)">
<stop offset="0" style="stop-color:rgb(87.843137%,87.843137%,87.843137%);stop-opacity:1;"/>
<stop offset="1" style="stop-color:rgb(93.333333%,93.333333%,93.333333%);stop-opacity:1;"/>
</linearGradient>
<linearGradient id="linear2" gradientUnits="userSpaceOnUse" x1="278.266418" y1="18.137159" x2="233.365128" y2="63.038441" gradientTransform="matrix(1,0,0,1,-181.451706,79.620354)">
<stop offset="0" style="stop-color:rgb(87.843137%,87.843137%,87.843137%);stop-opacity:1;"/>
<stop offset="1" style="stop-color:rgb(93.333333%,93.333333%,93.333333%);stop-opacity:1;"/>
</linearGradient>
<linearGradient id="linear3" gradientUnits="userSpaceOnUse" x1="273.571106" y1="10.653612" x2="228.66983" y2="55.554893" gradientTransform="matrix(1,0,0,1,-12.118375,79.620354)">
<stop offset="0" style="stop-color:rgb(87.843137%,87.843137%,87.843137%);stop-opacity:1;"/>
<stop offset="1" style="stop-color:rgb(93.333333%,93.333333%,93.333333%);stop-opacity:1;"/>
</linearGradient>
<linearGradient id="linear4" gradientUnits="userSpaceOnUse" x1="273.571106" y1="13.441852" x2="228.66983" y2="58.343132" gradientTransform="matrix(1,0,0,1,-12.118375,248.95369)">
<stop offset="0" style="stop-color:rgb(87.843137%,87.843137%,87.843137%);stop-opacity:1;"/>
<stop offset="1" style="stop-color:rgb(93.333333%,93.333333%,93.333333%);stop-opacity:1;"/>
</linearGradient>
<linearGradient id="linear5" gradientUnits="userSpaceOnUse" x1="278.266388" y1="13.44185" x2="229.623337" y2="62.084896" gradientTransform="matrix(1,0,0,1,-181.451706,248.95369)">
<stop offset="0" style="stop-color:rgb(87.843137%,87.843137%,87.843137%);stop-opacity:1;"/>
<stop offset="1" style="stop-color:rgb(93.333333%,93.333333%,93.333333%);stop-opacity:1;"/>
</linearGradient>
</defs>
<g id="surface1">
<path style=" stroke:none;fill-rule:nonzero;fill:url(#radial0);" d="M 23.816406 42.050781 L 27.785156 42.050781 L 27.785156 40.066406 L 23.816406 40.066406 Z M 23.816406 42.050781 "/>
<path style=" stroke:none;fill-rule:nonzero;fill:url(#radial1);" d="M 23.816406 42.050781 L 19.84375 42.050781 L 19.84375 44.035156 L 23.816406 44.035156 Z M 23.816406 42.050781 "/>
<path style=" stroke:none;fill-rule:nonzero;fill:url(#radial2);" d="M 23.816406 42.050781 L 19.84375 42.050781 L 19.84375 40.066406 L 23.816406 40.066406 Z M 23.816406 42.050781 "/>
<path style=" stroke:none;fill-rule:nonzero;fill:url(#radial3);" d="M 23.816406 42.050781 L 27.785156 42.050781 L 27.785156 44.035156 L 23.816406 44.035156 Z M 23.816406 42.050781 "/>
<path style=" stroke:none;fill-rule:nonzero;fill:url(#linear0);" d="M 5.570312 21.722656 L 22.410156 4.882812 C 23.1875 4.109375 24.441406 4.109375 25.21875 4.882812 L 42.058594 21.722656 C 42.832031 22.5 42.832031 23.753906 42.058594 24.53125 L 25.21875 41.371094 C 24.441406 42.144531 23.1875 42.144531 22.410156 41.371094 L 5.570312 24.53125 C 4.796875 23.753906 4.796875 22.5 5.570312 21.722656 Z M 5.570312 21.722656 "/>
<path style="fill-rule:nonzero;fill:url(#linear1);stroke-width:3;stroke-linecap:round;stroke-linejoin:miter;stroke:rgb(12.941177%,12.941177%,12.941177%);stroke-opacity:1;stroke-miterlimit:4;" d="M 157.212913 170.264106 C 174.741594 170.234646 188.970759 184.463811 188.941299 201.992493 C 188.970759 219.521174 174.741594 233.75034 157.212913 233.72088 C 139.684231 233.75034 125.455066 219.521174 125.484526 201.992493 C 125.455066 184.463811 139.684231 170.234646 157.212913 170.264106 Z M 157.212913 170.264106 " transform="matrix(0.0662976,-0.0662976,0.0662976,0.0662976,0,20.158175)"/>
<path style="fill-rule:nonzero;fill:url(#linear2);stroke-width:3;stroke-linecap:round;stroke-linejoin:miter;stroke:rgb(12.941177%,12.941177%,12.941177%);stroke-opacity:1;stroke-miterlimit:4;" d="M 72.544961 85.596154 C 90.073643 85.566694 104.302808 99.795859 104.273348 117.324541 C 104.302808 134.853223 90.073643 149.082388 72.544961 149.052928 C 55.016279 149.082388 40.787114 134.853223 40.816574 117.324541 C 40.787114 99.795859 55.016279 85.566694 72.544961 85.596154 Z M 72.544961 85.596154 " transform="matrix(0.0662976,-0.0662976,0.0662976,0.0662976,0,20.158175)"/>
<path style="fill-rule:nonzero;fill:url(#linear3);stroke-width:3;stroke-linecap:round;stroke-linejoin:miter;stroke:rgb(12.941177%,12.941177%,12.941177%);stroke-opacity:1;stroke-miterlimit:4;" d="M 241.880864 85.596154 C 259.409546 85.566694 273.638711 99.795859 273.609251 117.324541 C 273.638711 134.853223 259.409546 149.082388 241.880864 149.052928 C 224.352182 149.082388 210.123017 134.853223 210.152477 117.324541 C 210.123017 99.795859 224.352182 85.566694 241.880864 85.596154 Z M 241.880864 85.596154 " transform="matrix(0.0662976,-0.0662976,0.0662976,0.0662976,0,20.158175)"/>
<path style="fill-rule:nonzero;fill:url(#linear4);stroke-width:3;stroke-linecap:round;stroke-linejoin:miter;stroke:rgb(12.941177%,12.941177%,12.941177%);stroke-opacity:1;stroke-miterlimit:4;" d="M 241.880864 254.932057 C 259.409546 254.902597 273.638711 269.131763 273.609251 286.660444 C 273.638711 304.189126 259.409546 318.418291 241.880864 318.388831 C 224.352182 318.418291 210.123017 304.189126 210.152477 286.660444 C 210.123017 269.131763 224.352182 254.902597 241.880864 254.932057 Z M 241.880864 254.932057 " transform="matrix(0.0662976,-0.0662976,0.0662976,0.0662976,0,20.158175)"/>
<path style="fill-rule:nonzero;fill:url(#linear5);stroke-width:3;stroke-linecap:round;stroke-linejoin:miter;stroke:rgb(12.941177%,12.941177%,12.941177%);stroke-opacity:1;stroke-miterlimit:4;" d="M 72.544961 254.932057 C 90.073643 254.902597 104.302808 269.131763 104.273348 286.660444 C 104.302808 304.189126 90.073643 318.418291 72.544961 318.388831 C 55.016279 318.418291 40.787114 304.189126 40.816574 286.660444 C 40.787114 269.131763 55.016279 254.902597 72.544961 254.932057 Z M 72.544961 254.932057 " transform="matrix(0.0662976,-0.0662976,0.0662976,0.0662976,0,20.158175)"/>
<path style=" stroke:none;fill-rule:nonzero;fill:rgb(100%,100%,100%);fill-opacity:0.392157;" d="M 23.816406 4.300781 C 23.308594 4.300781 22.800781 4.496094 22.410156 4.882812 L 5.570312 21.722656 C 5.105469 22.191406 4.917969 22.832031 5.011719 23.433594 C 5.074219 23.035156 5.261719 22.648438 5.570312 22.339844 L 22.410156 5.5 C 23.1875 4.722656 24.441406 4.722656 25.21875 5.5 L 42.058594 22.339844 C 42.367188 22.648438 42.554688 23.035156 42.617188 23.433594 C 42.710938 22.832031 42.523438 22.191406 42.058594 21.722656 L 25.21875 4.882812 C 24.828125 4.496094 24.320312 4.300781 23.816406 4.300781 Z M 23.816406 4.300781 "/>
<path style=" stroke:none;fill-rule:nonzero;fill:rgb(0%,0%,0%);fill-opacity:0.235294;" d="M 23.816406 41.953125 C 23.308594 41.953125 22.800781 41.757812 22.410156 41.367188 L 5.570312 24.527344 C 5.105469 24.0625 4.917969 23.421875 5.011719 22.816406 C 5.074219 23.21875 5.261719 23.605469 5.570312 23.914062 L 22.410156 40.753906 C 23.1875 41.53125 24.441406 41.53125 25.21875 40.753906 L 42.058594 23.914062 C 42.367188 23.605469 42.554688 23.21875 42.617188 22.816406 C 42.710938 23.421875 42.523438 24.0625 42.058594 24.527344 L 25.21875 41.367188 C 24.828125 41.757812 24.320312 41.953125 23.816406 41.953125 Z M 23.816406 41.953125 "/>
<path style=" stroke:none;fill-rule:nonzero;fill:rgb(12.941177%,12.941177%,12.941177%);fill-opacity:1;" d="M 5.472656 21.625 C 4.640625 22.453125 4.640625 23.800781 5.472656 24.628906 L 22.3125 41.46875 C 23.144531 42.300781 24.488281 42.300781 25.316406 41.46875 L 42.15625 24.628906 C 42.988281 23.800781 42.988281 22.457031 42.15625 21.625 L 25.316406 4.785156 C 24.488281 3.953125 23.144531 3.953125 22.3125 4.785156 Z M 5.671875 21.824219 L 22.511719 4.984375 C 23.234375 4.257812 24.394531 4.257812 25.117188 4.984375 L 41.957031 21.824219 C 42.683594 22.546875 42.683594 23.707031 41.957031 24.429688 L 25.117188 41.269531 C 24.394531 41.996094 23.234375 41.996094 22.511719 41.269531 L 5.671875 24.429688 C 4.949219 23.707031 4.945312 22.546875 5.671875 21.824219 Z M 5.671875 21.824219 "/>
</g>
</svg>
